X:1
T:Joy and Consolation
T:Joy and Consolation
T:Arthur Decatur Henry
T:Arthur Decatur Henry, 1913
T:Public Domain Courtesy of the Cyber Hymnal™
T:Public Domain Courtesy of the Cyber Hymnal™
C:Arthur Decatur Henry
Z:Public Domain
Z:Courtesy of the Cyber Hymnal™
%%score ( 1 2 ) ( 3 4 )
L:1/8
Q:1/4=83
M:4/4
K:E
V:1 treble 
V:2 treble 
V:3 bass 
V:4 bass 
V:1
 [EG][EF] | [B,E][B,E][CE][DF] [EG]E[Ec][EB] | [Ec][EB][EG]E [B,F][B,E][Ec][EB] | %3
w: 1.~O the|joy and con- so- la- tion Je- sus|of- fers thro’ sal- va- tion, Since a|
w: 2.~O the|joy and con- so- la- tion, To be|free from con- dem- na- tion, Thro’ our|
w: 3.~O ’tis|free to ev- ery na- tion, With- out|price or com- pen- sa- tion, And He’s|
 [EG] G4 [EG]F[EG] | B6 [EG][EF] | [B,E][B,E][CE][DF] [EG]E[Ec][EB] | %6
w: ran- som for our sins|He free- ly|died, That we might some day be giv-|
w: Sav- ior, our blest Lord|and friend so|dear; If you would now be pos- sess-|
w: call- ing, oh! He calls|you now to|come; On- ly take Him as your Sav-|
 [Ec][FB] (3[FA][EG]E [B,F][B,E][Ec][EB] | [EG][EG] G4 [DF][DF] | E6 ||"^Refrain" [Ge][Ge] | %10
w: en Our re- ward with an- gels in Hea-|ven, And in glad- ness|ne-|ver end-|
w: ing Je- sus and His ev- er- y bless-|ing, On- ly trust Him,|on-|ly trust|
w: ior, Shar- ing in His won- der- ful fa-|vor, And for- ev- er,|yes,|for- ev-|
 [Ge][GB][Ac][GB] [EG][E^^F][EG][EF] | [EG]([GB] B4) [Ge][Ge] | %12
w: ing there a- bide! * * * *||
w: Him: He is near. Yes, the Sav- ior|of- fers * joy and|
w: er, dwell at home. * * * *||
 [Ge][GB][Ac][GB] [EG][DF] (3E[DF][EG] | F4- [DF]2 [EG][EF] | [B,E][B,E][CE][DF] [EG]E[Ec][EB] | %15
w: |||
w: con- so- la- tion, And a home with- in|the glor- ious man-|* sions for aye; If you will no|
w: |||
 [Ec][FB] (3[FA][EG]E [B,F][B,E][Ec][EB] | [EG][EG] G4 [DF][DF] | E4- [B,E]2 |] %18
w: |||
w: long- er wan- der, But ac- cept His love|and sal- va- tion, He|will free-|
w: |||
V:2
 x2 | x5 E x2 | x3 E x4 | x EEE EF x2 | (DDDD E2) x2 | x5 E x2 | x8 | x2 EE EE x2 | (EDCC B,2) || %9
 x2 | x8 | x2 (FFGG) x2 | x6 E x | DD(3CCC x4 | x5 E x2 | x8 | x2 EE EE x2 | EDCC x2 |] %18
V:3
 [E,B,][E,A,] | [E,G,][E,G,][C,G,][C,B,] [E,B,][E,G,][E,G,][E,G,] | %2
 [E,G,][E,G,][E,B,][E,G,] [E,A,][E,G,][E,G,][E,G,] | %3
 [E,B,][E,B,][G,B,]B, [F,B,][F,B,][E,B,][F,B,] | %4
 ([B,,B,][B,,F,][B,,F,][B,,A,] [E,G,]2) [E,B,][E,A,] | %5
 [E,G,][E,G,][C,G,][B,,B,] [E,B,][E,G,][E,G,][E,G,] | %6
 [E,G,][E,G,] (3[E,B,][E,A,][E,G,] [E,A,][E,G,][E,G,][E,G,] | %7
 [E,B,][E,B,][C,C][C,C] [G,,B,][G,,B,][B,,B,][B,,A,] | (G,B,A,A, G,2) || [E,B,][E,B,] | %10
 [E,B,][E,E][E,E][E,E] [E,B,][E,^A,][E,B,][E,A,] | [E,B,][E,E][B,,D][B,,D] [E,E][E,E][E,B,][E,B,] | %12
 [E,B,][E,E][E,E][E,E] [E,B,][F,B,] (3[G,B,][F,B,][E,B,] | %13
 [B,,B,][B,,B,] (3[F,^A,][F,A,][F,A,] [B,,B,]2 [E,B,][E,A,] | %14
 [E,G,][E,G,][C,G,][B,,B,] [E,B,][E,G,][E,G,][E,G,] | %15
 [E,G,][E,G,] (3[E,B,][E,A,][E,G,] [E,A,][E,G,][E,G,][E,G,] | %16
 [E,B,][E,B,][C,C][C,C] [G,,B,][G,,B,][B,,B,][B,,A,] | (G,B,A,A, [E,G,]2) |] %18
V:4
 x2 | x8 | x8 | x3 B, x4 | x8 | x8 | x8 | x8 | E,6 || x2 | x8 | x8 | x8 | x8 | x8 | x8 | x8 | %17
 E,4- x2 |] %18

